X:1
T:The Crockery-Ware
M:4/4
L:1/8
K:F
 A3/2- G/2| F/2F/2 DD/2-E/2 FD C C3/2 C/2| F F/2F/2F/2-G/2 AA G G3/2 G/2|\
 AA/2-B/2 cA/2-G/2 FD D3/2 D/2| BA GF| EG c A/2G/2| F D/2D/2 D F/2F/2 DC C2|\
 F F/2F/2 G c/2B/2 AG F2|
